images/icons/linear-arrow-next.svg

<svg width="33" height="20" viewBox="0 0 33 20" fill="none" xmlns="http://www.w3.org/2000/svg">
<path d="M21.7577 19.5372C21.4586 19.2411 21.2907 18.8398 21.2907 18.4213C21.2907 18.0029 21.4586 17.6015 21.7577 17.3055L27.5483 11.5789H1.5967C1.17323 11.5789 0.7671 11.4126 0.467662 11.1164C0.168223 10.8203 0 10.4187 0 9.9999C0 9.58111 0.168223 9.17948 0.467662 8.88336C0.7671 8.58724 1.17323 8.42088 1.5967 8.42088H27.5441L21.7577 2.69641C21.6093 2.54974 21.4917 2.37562 21.4114 2.18398C21.3312 1.99234 21.2898 1.78695 21.2898 1.57952C21.2898 1.16061 21.4581 0.75885 21.7577 0.462632C22.0572 0.166414 22.4634 0 22.887 0C23.3107 0 23.7169 0.166414 24.0164 0.462632L32.5322 8.88406C32.6805 9.03051 32.7981 9.20445 32.8784 9.39592C32.9587 9.58738 33 9.79262 33 9.9999C33 10.2072 32.9587 10.4124 32.8784 10.6039C32.7981 10.7953 32.6805 10.9693 32.5322 11.1157L24.0164 19.5372C23.8682 19.6839 23.6921 19.8003 23.4983 19.8797C23.3045 19.9591 23.0968 20 22.887 20C22.6773 20 22.4696 19.9591 22.2758 19.8797C22.082 19.8003 21.9059 19.6839 21.7577 19.5372Z" fill="url(#paint0_linear_519_102)"/>
<defs>
<linearGradient id="paint0_linear_519_102" x1="33" y1="10" x2="8.28593e-08" y2="10" gradientUnits="userSpaceOnUse">
<stop stop-color="#05668D"/>
<stop offset="0.370311" stop-color="#028090"/>
<stop offset="0.697917" stop-color="#00A896"/>
<stop offset="1" stop-color="#02C39A"/>
</linearGradient>
</defs>
</svg>

<svg width="33" height="20" fill="none" xmlns="http://www.w3.org/2000/svg"><path d="M21.758 19.537a1.57 1.57 0 0 1 0-2.232l5.79-5.726H1.597c-.424 0-.83-.166-1.13-.463a1.57 1.57 0 0 1 0-2.233c.3-.296.706-.462 1.13-.462h25.947l-5.786-5.725a1.578 1.578 0 0 1-.468-1.116c0-.42.168-.821.468-1.117a1.606 1.606 0 0 1 2.258 0l8.516 8.421A1.576 1.576 0 0 1 33 10a1.561 1.561 0 0 1-.468 1.116l-8.516 8.421a1.597 1.597 0 0 1-1.129.463 1.613 1.613 0 0 1-1.13-.463Z" fill="url(#a)"/><defs><linearGradient id="a" x1="33" y1="10" x2="0" y2="10" gradientUnits="userSpaceOnUse"><stop stop-color="#05668D"/><stop offset=".37" stop-color="#028090"/><stop offset=".698" stop-color="#00A896"/><stop offset="1" stop-color="#02C39A"/></linearGradient></defs></svg>
